src/img/bg-quote.svg

<svg width="105" height="89" viewBox="0 0 105 89" fill="none" xmlns="http://www.w3.org/2000/svg">
<path d="M71.3941 48.6051C73.9802 49.3496 76.5662 49.7274 79.0818 49.7274C82.9665 49.7274 86.2079 48.8397 88.7213 47.7526C86.2982 56.6234 80.4773 71.9297 68.8818 73.6534C67.8079 73.8131 66.9279 74.5896 66.6349 75.6349L64.1006 84.6995C63.8869 85.4661 64.0135 86.2867 64.4508 86.9519C64.8881 87.6172 65.5908 88.061 66.3783 88.169C67.2341 88.2857 68.1064 88.3452 68.971 88.3452C82.8894 88.3452 96.6735 73.8176 102.49 53.0163C105.904 40.8126 106.905 22.4652 98.4952 10.9169C93.7889 4.45489 86.9227 1.00415 78.0873 0.659406C78.0509 0.658308 78.0157 0.657201 77.9793 0.657201C67.0777 0.6572 57.4107 7.99923 54.4699 18.51C52.7132 24.7936 53.5073 31.3834 56.708 37.07C59.8745 42.6927 65.0896 46.791 71.3941 48.6051Z" fill="#F5F7FC"/>
<path d="M3.15256 37.0689C6.31909 42.6927 11.5342 46.7911 17.8387 48.6051C20.4248 49.3497 23.0109 49.7274 25.5254 49.7274C29.41 49.7274 32.6525 48.8397 35.1659 47.7526C32.7428 56.6234 26.9219 71.9297 15.3253 73.6535C14.2514 73.8132 13.3725 74.5897 13.0784 75.6349L10.5441 84.6995C10.3304 85.4661 10.4571 86.2867 10.8943 86.9519C11.3305 87.6172 12.0332 88.061 12.8218 88.169C13.6765 88.2857 14.5488 88.3452 15.4145 88.3452C29.3329 88.3452 43.117 73.8176 48.9346 53.0163C52.3478 40.8126 53.349 22.4653 44.9376 10.9147C40.2324 4.45383 33.3651 1.002 24.5308 0.658353C24.4944 0.657255 24.4592 0.656148 24.4217 0.656148C13.5212 0.656148 3.85306 7.99817 0.912314 18.509C-0.842222 24.7925 -0.047015 31.3834 3.15256 37.0689Z" fill="#F5F7FC"/>
</svg>

<svg width="105" height="89" fill="none" xmlns="http://www.w3.org/2000/svg"><path d="M71.394 48.605c2.586.745 5.172 1.122 7.688 1.122 3.885 0 7.126-.887 9.64-1.974-2.424 8.87-8.245 24.177-19.84 25.9a2.755 2.755 0 00-2.247 1.982L64.1 84.699a2.752 2.752 0 002.277 3.47c.856.117 1.728.176 2.593.176 13.918 0 27.703-14.527 33.519-35.329 3.414-12.203 4.415-30.55-3.995-42.1C93.79 4.456 86.923 1.005 78.087.66L77.98.657C67.078.657 57.411 8 54.47 18.51c-1.756 6.284-.962 12.873 2.239 18.56 3.166 5.623 8.382 9.721 14.686 11.535zM3.153 37.069c3.166 5.624 8.381 9.722 14.686 11.536 2.586.745 5.172 1.122 7.686 1.122 3.885 0 7.128-.887 9.64-1.974-2.422 8.87-8.243 24.177-19.84 25.9a2.757 2.757 0 00-2.247 1.982l-2.534 9.064a2.753 2.753 0 002.278 3.47c.855.117 1.727.176 2.593.176 13.918 0 27.702-14.527 33.52-35.329 3.413-12.203 4.414-30.55-3.997-42.101C40.232 4.454 33.365 1.002 24.53.658l-.11-.002C13.522.656 3.854 7.998.913 18.51a24.281 24.281 0 002.24 18.56z" fill="#F5F7FC"/></svg>
